local/share/icons/dracula-icons-main/scalable/mimetypes/libreoffice-oasis-formula.svg

<svg width="64" height="64" version="1.1" viewBox="0 0 16.933 16.933" xmlns="http://www.w3.org/2000/svg" xmlns:xlink="http://www.w3.org/1999/xlink">
 <path d="m3.4395 1.0583c-0.73289 0-1.3229 0.59001-1.3229 1.3229v12.171c0 0.73289 0.59001 1.3229 1.3229 1.3229h10.054c0.73289 0 1.3229-0.59001 1.3229-1.3229v-10.319l-3.175-3.175z" fill="#f9f9f9" fill-rule="evenodd" stroke-width=".26458" style="paint-order:stroke fill markers"/>
 <path d="m3.4395 1.0583c-0.73289 0-1.3229 0.59-1.3229 1.3229v12.171c0 0.73289 0.59 1.3229 1.3229 1.3229h10.054c0.73289 0 1.3229-0.59 1.3229-1.3229v-10.319l-3.1749-3.1749zm0 0.52916h7.9828l2.8649 2.8649v10.099c0 0.44889-0.34485 0.79373-0.79373 0.79373h-10.054c-0.44889 0-0.79373-0.34485-0.79373-0.79373v-12.171c0-0.44889 0.34485-0.79373 0.79373-0.79373z" color="#000000" color-rendering="auto" dominant-baseline="auto" fill="#5b5b5b" image-rendering="auto" shape-rendering="auto" solid-color="#000000" style="font-feature-settings:normal;font-variant-alternates:normal;font-variant-caps:normal;font-variant-ligatures:normal;font-variant-numeric:normal;font-variant-position:normal;isolation:auto;mix-blend-mode:normal;paint-order:fill markers stroke;shape-padding:0;text-decoration-color:#000000;text-decoration-line:none;text-decoration-style:solid;text-indent:0;text-orientation:mixed;text-transform:none;white-space:normal"/>
 <path d="m12.171 1.0583 2.6458 2.6458-3.75e-4 -1.3229c-2.08e-4 -0.73288-0.59001-1.3229-1.3229-1.3229z" fill="#5b5b5b" fill-rule="evenodd" style="paint-order:stroke fill markers"/>
 <rect x="4.2376" y="10.19" width="8.4666" height="1.8521" fill="#ccc" stroke-width=".066145"/>
 <rect x="4.2376" y="4.766" width="8.4666" height="5.5562" fill="#f2f2f2" stroke-width=".066145"/>
 <g fill="#4d4d4d" stroke-width=".1323">
  <path d="m6.6582 10.847v0.10192c-0.029823-0.01737-0.059844-0.03039-0.090037-0.03907-0.030206-0.0087-0.060968-0.0131-0.092313-0.0131-0.047182 0-0.082482 0.0078-0.10589 0.02322-0.023035 0.01509-0.034546 0.03831-0.034546 0.06964 0 0.02831 0.00873 0.04945 0.026052 0.06342 0.017359 0.01397 0.060585 0.02756 0.12968 0.04077l0.041903 0.0079c0.05172 0.0098 0.090791 0.02943 0.11723 0.05888 0.026793 0.02943 0.040196 0.06776 0.040196 0.11493 0 0.06267-0.022268 0.11173-0.066816 0.14721-0.044549 0.03511-0.10646 0.05265-0.18574 0.05265-0.031344 0-0.064184-0.0034-0.098531-0.01019-0.034361-0.0065-0.07154-0.01623-0.11156-0.02943v-0.10758c0.038886 0.02 0.076078 0.0351 0.11156 0.0453 0.035485 0.0098 0.069079 0.01471 0.10079 0.01471 0.046057 0 0.081728-0.0093 0.10703-0.02774 0.025298-0.01886 0.037946-0.04511 0.037946-0.0787 0-0.04831-0.046256-0.08172-0.13874-0.10022l-0.0045-0.0013-0.039071-0.0079c-0.060029-0.01177-0.10381-0.03134-0.13137-0.05888-0.02756-0.02794-0.041347-0.06587-0.041347-0.11381 0-0.06077 0.020574-0.10758 0.061723-0.14041 0.041162-0.03322 0.099854-0.04983 0.17612-0.04983 0.033977 0 0.066631 0.0032 0.097962 0.0097 0.031344 0.0061 0.062106 0.01528 0.092312 0.02774"/>
  <path d="m6.989 11.151c0 0.08078 0.012702 0.14174 0.037933 0.18288 0.025681 0.04114 0.063615 0.06171 0.11383 0.06171 0.050212 0 0.088158-0.02057 0.11383-0.06171 0.026052-0.04153 0.039071-0.10248 0.039071-0.18288 0-0.08041-0.012966-0.14118-0.039071-0.18232-0.025668-0.04153-0.063615-0.06228-0.11383-0.06228-0.050212 0-0.088145 0.02057-0.11383 0.06171-0.025284 0.04114-0.037933 0.1021-0.037933 0.18289m0.30466 0.23553c-0.016989 0.03133-0.040011 0.0555-0.069092 0.07247-0.028685 0.01661-0.062093 0.02492-0.10022 0.02492-0.07588 0-0.13591-0.02926-0.18007-0.08776-0.043795-0.05888-0.065692-0.13986-0.065692-0.2429 0-0.10493 0.021897-0.18703 0.065692-0.2463 0.043795-0.05927 0.10381-0.0889 0.18007-0.0889 0.037748 0 0.070971 0.0083 0.099669 0.02492 0.029069 0.01622 0.052276 0.04 0.069648 0.07133v-0.08096h0.10476v0.87534h-0.10476v-0.32216"/>
  <path d="m8.1401 10.979c-0.022268-0.01737-0.044919-0.03-0.067954-0.03794-0.023022-0.0079-0.048319-0.01191-0.07588-0.01191-0.064938 0-0.11458 0.02037-0.14893 0.06115-0.034361 0.04077-0.051535 0.09965-0.051535 0.17665v0.31538h-0.10476v-0.63415h0.10476v0.124c0.017359-0.04491 0.04398-0.07927 0.079849-0.10304 0.03624-0.02416 0.079082-0.03623 0.12854-0.03623 0.025668 0 0.049643 0.0032 0.071924 0.0097 0.022268 0.0065 0.043596 0.01642 0.063985 0.03002v0.10644"/>
  <path d="m8.59 10.662v0.18006h0.2367v0.08096h-0.2367v0.34424c0 0.0468 0.00886 0.07945 0.026608 0.09796 0.017743 0.01849 0.048703 0.02774 0.092868 0.02774h0.11723v0.08322h-0.12741c-0.078142 0-0.13326-0.01566-0.16536-0.04699-0.032085-0.03133-0.048134-0.08531-0.048134-0.16194v-0.34424h-0.16932v-0.08096h0.16932v-0.18006h0.10421"/>
  <path d="m9.5558 11.535v0.08153h-0.03624c-0.094006 0-0.15705-0.01396-0.18914-0.0419-0.031715-0.02793-0.047579-0.08361-0.047565-0.16703v-0.13532c-1.33e-5 -0.05699-0.010188-0.09644-0.03059-0.11833-0.020005-0.02189-0.05643-0.03283-0.10929-0.03283h-0.035115v-0.08098h0.035115c0.053228 0 0.089852-0.01072 0.10986-0.03227 0.020005-0.02152 0.030008-0.06059 0.030021-0.11721v-0.13589c-1.33e-5 -0.08341 0.015851-0.1389 0.047565-0.16646 0.032085-0.02793 0.095131-0.0419 0.18914-0.0419h0.03624v0.08096h-0.03964c-0.052858 1.3e-5 -0.087404 0.0083-0.10362 0.02492-0.015864 0.01623-0.023789 0.05114-0.023789 0.10475v0.14041c0 0.05927-0.00873 0.10229-0.026052 0.12909-0.016989 0.0268-0.046242 0.04492-0.087774 0.05436 0.041903 0.01019 0.071355 0.02868 0.088343 0.05548 0.016989 0.0268 0.025483 0.06965 0.025483 0.12853v0.14041c0 0.05397 0.00794 0.08908 0.023789 0.10532 0.016221 0.01623 0.050767 0.02434 0.10362 0.02434h0.03964"/>
  <path d="m10.257 10.834-0.22708 0.30347 0.24917 0.33066h-0.12061l-0.18575-0.25422-0.18517 0.25422h-0.12061l0.24915-0.33066-0.22707-0.30347h0.11552l0.16818 0.22931 0.16705-0.22931h0.11723"/>
  <path d="m10.442 11.535h0.0385c0.05324 0 0.08797-0.0083 0.10421-0.02491 0.01623-0.0166 0.02435-0.05153 0.02435-0.10475v-0.14041c0-0.05888 0.0085-0.10173 0.02548-0.12853 0.01699-0.0268 0.04644-0.0453 0.08834-0.05548-0.04153-0.0094-0.07098-0.02756-0.08834-0.05436-0.01699-0.0268-0.02548-0.06982-0.02548-0.12909v-0.14041c0-0.05323-0.0081-0.08814-0.02435-0.10475-0.01623-0.01661-0.05097-0.02491-0.10421-0.02492h-0.0385v-0.08096h0.03512c0.09399 0 0.15685 0.01397 0.18857 0.0419 0.03171 0.02756 0.04756 0.08305 0.04756 0.16646v0.13589c0 0.05662 0.01006 0.09569 0.03002 0.11721 0.02038 0.02151 0.05718 0.03227 0.11041 0.03227h0.03625v0.08098h-0.03625c-0.05323 0-0.09004 0.01098-0.11041 0.03283-0.02002 0.02189-0.03002 0.06134-0.03002 0.11833v0.13532c0 0.08342-0.01585 0.1391-0.04756 0.16703-0.03172 0.02794-0.09458 0.0419-0.18857 0.0419h-0.03512v-0.08153"/>
 </g>
 <path d="m7.9417 5.3613h3.9708v0.79374h-0.39709v-0.26458h-3.2424l-1.6178 3.8364h-0.23497l-0.99085-2.1144-0.38586 0.20223-0.14236-0.49576 0.80075-0.30468 0.83303 1.6258 1.4064-3.2788" fill="#868583" opacity=".8" stroke-width=".066145"/>
 <path d="m11.672 6.6842h-0.65597l-0.80631 1.0581h-0.02049l-0.77899-1.0581h-0.71066l1.116 1.4836v0.018851l-1.157 1.5402h0.65598l0.86094-1.1462h0.0205l0.86101 1.1462h0.71066l-1.1843-1.5653v-0.018865l1.0887-1.4585" fill="#868583" opacity=".8" stroke-width=".066145"/>
</svg>

<?xml version="1.0" encoding="UTF-8"?>
<svg xmlns="http://www.w3.org/2000/svg" xmlns:xlink="http://www.w3.org/1999/xlink" width="64" height="64" viewBox="0 0 64 64">
<defs>
<filter id="filter-remove-color" x="0%" y="0%" width="100%" height="100%">
<feColorMatrix color-interpolation-filters="sRGB" values="0 0 0 0 1 0 0 0 0 1 0 0 0 0 1 0 0 0 1 0" />
</filter>
<mask id="mask-0">
<g filter="url(#filter-remove-color)">
<rect x="-6.4" y="-6.4" width="76.8" height="76.8" fill="rgb(0%, 0%, 0%)" fill-opacity="0.8"/>
</g>
</mask>
<clipPath id="clip-0">
<rect x="0" y="0" width="17" height="17"/>
</clipPath>
<g id="source-3855" clip-path="url(#clip-0)">
<path fill-rule="nonzero" fill="rgb(52.54902%, 52.156863%, 51.372549%)" fill-opacity="1" d="M 7.941406 5.359375 L 11.914062 5.359375 L 11.914062 6.15625 L 11.515625 6.15625 L 11.515625 5.890625 L 8.273438 5.890625 L 6.65625 9.726562 L 6.421875 9.726562 L 5.429688 7.613281 L 5.042969 7.816406 L 4.902344 7.320312 L 5.703125 7.015625 L 6.535156 8.640625 L 7.941406 5.359375 "/>
</g>
<mask id="mask-1">
<g filter="url(#filter-remove-color)">
<rect x="-6.4" y="-6.4" width="76.8" height="76.8" fill="rgb(0%, 0%, 0%)" fill-opacity="0.8"/>
</g>
</mask>
<clipPath id="clip-1">
<rect x="0" y="0" width="17" height="17"/>
</clipPath>
<g id="source-3859" clip-path="url(#clip-1)">
<path fill-rule="nonzero" fill="rgb(52.54902%, 52.156863%, 51.372549%)" fill-opacity="1" d="M 11.671875 6.683594 L 11.015625 6.683594 L 10.210938 7.742188 L 10.1875 7.742188 L 9.410156 6.683594 L 8.699219 6.683594 L 9.816406 8.167969 L 9.816406 8.1875 L 8.660156 9.726562 L 9.316406 9.726562 L 10.175781 8.582031 L 10.195312 8.582031 L 11.058594 9.726562 L 11.769531 9.726562 L 10.582031 8.160156 L 10.582031 8.144531 L 11.671875 6.683594 "/>
</g>
</defs>
<path fill-rule="evenodd" fill="rgb(97.647059%, 97.647059%, 97.647059%)" fill-opacity="1" d="M 3.441406 1.058594 C 2.707031 1.058594 2.117188 1.648438 2.117188 2.382812 L 2.117188 14.550781 C 2.117188 15.285156 2.707031 15.875 3.441406 15.875 L 13.492188 15.875 C 14.226562 15.875 14.816406 15.285156 14.816406 14.550781 L 14.816406 4.234375 L 11.640625 1.058594 Z M 3.441406 1.058594 "/>
<path fill-rule="nonzero" fill="rgb(35.686275%, 35.686275%, 35.686275%)" fill-opacity="1" d="M 3.441406 1.058594 C 2.707031 1.058594 2.117188 1.648438 2.117188 2.382812 L 2.117188 14.550781 C 2.117188 15.285156 2.707031 15.875 3.441406 15.875 L 13.492188 15.875 C 14.226562 15.875 14.816406 15.285156 14.816406 14.550781 L 14.816406 4.234375 L 11.640625 1.058594 Z M 3.441406 1.585938 L 11.421875 1.585938 L 14.289062 4.453125 L 14.289062 14.550781 C 14.289062 15 13.941406 15.34375 13.492188 15.34375 L 3.441406 15.34375 C 2.992188 15.34375 2.644531 15 2.644531 14.550781 L 2.644531 2.378906 C 2.644531 1.929688 2.992188 1.585938 3.441406 1.585938 Z M 3.441406 1.585938 "/>
<path fill-rule="evenodd" fill="rgb(35.686275%, 35.686275%, 35.686275%)" fill-opacity="1" d="M 12.171875 1.058594 L 14.816406 3.703125 L 14.816406 2.382812 C 14.816406 1.648438 14.226562 1.058594 13.492188 1.058594 Z M 12.171875 1.058594 "/>
<path fill-rule="nonzero" fill="rgb(80%, 80%, 80%)" fill-opacity="1" d="M 4.238281 10.191406 L 12.703125 10.191406 L 12.703125 12.042969 L 4.238281 12.042969 Z M 4.238281 10.191406 "/>
<path fill-rule="nonzero" fill="rgb(94.901961%, 94.901961%, 94.901961%)" fill-opacity="1" d="M 4.238281 4.765625 L 12.703125 4.765625 L 12.703125 10.320312 L 4.238281 10.320312 Z M 4.238281 4.765625 "/>
<path fill-rule="nonzero" fill="rgb(30.196078%, 30.196078%, 30.196078%)" fill-opacity="1" d="M 6.65625 10.847656 L 6.65625 10.949219 C 6.628906 10.929688 6.597656 10.917969 6.566406 10.910156 C 6.539062 10.902344 6.507812 10.898438 6.476562 10.898438 C 6.429688 10.898438 6.394531 10.90625 6.371094 10.921875 C 6.347656 10.933594 6.335938 10.957031 6.335938 10.988281 C 6.335938 11.019531 6.34375 11.039062 6.363281 11.054688 C 6.378906 11.066406 6.421875 11.082031 6.492188 11.09375 L 6.53125 11.101562 C 6.585938 11.113281 6.625 11.132812 6.648438 11.160156 C 6.675781 11.191406 6.691406 11.226562 6.691406 11.277344 C 6.691406 11.339844 6.667969 11.386719 6.625 11.421875 C 6.578125 11.457031 6.515625 11.476562 6.4375 11.476562 C 6.40625 11.476562 6.375 11.472656 6.339844 11.464844 C 6.304688 11.457031 6.269531 11.449219 6.226562 11.4375 L 6.226562 11.328125 C 6.265625 11.347656 6.304688 11.363281 6.339844 11.375 C 6.375 11.382812 6.410156 11.386719 6.441406 11.386719 C 6.484375 11.386719 6.523438 11.378906 6.546875 11.359375 C 6.574219 11.339844 6.585938 11.316406 6.585938 11.28125 C 6.585938 11.234375 6.539062 11.199219 6.445312 11.179688 L 6.441406 11.179688 L 6.402344 11.171875 C 6.34375 11.160156 6.300781 11.140625 6.269531 11.113281 C 6.242188 11.085938 6.230469 11.046875 6.230469 11 C 6.230469 10.9375 6.25 10.890625 6.292969 10.859375 C 6.332031 10.824219 6.390625 10.808594 6.46875 10.808594 C 6.5 10.808594 6.535156 10.8125 6.566406 10.820312 C 6.597656 10.824219 6.628906 10.835938 6.660156 10.847656 "/>
<path fill-rule="nonzero" fill="rgb(30.196078%, 30.196078%, 30.196078%)" fill-opacity="1" d="M 6.988281 11.152344 C 6.988281 11.230469 7 11.292969 7.027344 11.332031 C 7.050781 11.375 7.089844 11.394531 7.140625 11.394531 C 7.191406 11.394531 7.230469 11.375 7.253906 11.332031 C 7.28125 11.292969 7.292969 11.230469 7.292969 11.152344 C 7.292969 11.070312 7.28125 11.011719 7.253906 10.96875 C 7.230469 10.925781 7.191406 10.90625 7.140625 10.90625 C 7.089844 10.90625 7.050781 10.925781 7.027344 10.96875 C 7 11.007812 6.988281 11.070312 6.988281 11.152344 M 7.292969 11.386719 C 7.277344 11.417969 7.253906 11.441406 7.222656 11.460938 C 7.195312 11.476562 7.164062 11.484375 7.125 11.484375 C 7.046875 11.484375 6.988281 11.453125 6.945312 11.394531 C 6.902344 11.335938 6.878906 11.257812 6.878906 11.152344 C 6.878906 11.046875 6.902344 10.964844 6.945312 10.90625 C 6.988281 10.847656 7.046875 10.816406 7.125 10.816406 C 7.160156 10.816406 7.195312 10.828125 7.222656 10.84375 C 7.253906 10.859375 7.277344 10.882812 7.292969 10.914062 L 7.292969 10.832031 L 7.398438 10.832031 L 7.398438 11.707031 L 7.292969 11.707031 L 7.292969 11.386719 "/>
<path fill-rule="nonzero" fill="rgb(30.196078%, 30.196078%, 30.196078%)" fill-opacity="1" d="M 8.140625 10.980469 C 8.117188 10.960938 8.09375 10.949219 8.070312 10.941406 C 8.050781 10.933594 8.023438 10.929688 7.996094 10.929688 C 7.929688 10.929688 7.882812 10.949219 7.847656 10.992188 C 7.8125 11.03125 7.796875 11.089844 7.796875 11.167969 L 7.796875 11.480469 L 7.691406 11.480469 L 7.691406 10.847656 L 7.796875 10.847656 L 7.796875 10.972656 C 7.8125 10.925781 7.839844 10.894531 7.875 10.867188 C 7.910156 10.84375 7.953125 10.832031 8.003906 10.832031 C 8.03125 10.832031 8.054688 10.835938 8.074219 10.84375 C 8.097656 10.847656 8.121094 10.859375 8.140625 10.871094 L 8.140625 10.980469 "/>
<path fill-rule="nonzero" fill="rgb(30.196078%, 30.196078%, 30.196078%)" fill-opacity="1" d="M 8.589844 10.660156 L 8.589844 10.84375 L 8.828125 10.84375 L 8.828125 10.921875 L 8.589844 10.921875 L 8.589844 11.265625 C 8.589844 11.3125 8.597656 11.347656 8.617188 11.363281 C 8.632812 11.382812 8.664062 11.394531 8.710938 11.394531 L 8.828125 11.394531 L 8.828125 11.476562 L 8.699219 11.476562 C 8.621094 11.476562 8.566406 11.460938 8.535156 11.429688 C 8.5 11.398438 8.484375 11.34375 8.484375 11.265625 L 8.484375 10.921875 L 8.316406 10.921875 L 8.316406 10.84375 L 8.484375 10.84375 L 8.484375 10.660156 L 8.589844 10.660156 "/>
<path fill-rule="nonzero" fill="rgb(30.196078%, 30.196078%, 30.196078%)" fill-opacity="1" d="M 9.554688 11.535156 L 9.554688 11.617188 L 9.519531 11.617188 C 9.425781 11.617188 9.363281 11.601562 9.332031 11.574219 C 9.296875 11.546875 9.28125 11.492188 9.28125 11.40625 L 9.28125 11.273438 C 9.28125 11.214844 9.273438 11.175781 9.253906 11.152344 C 9.230469 11.132812 9.195312 11.121094 9.144531 11.121094 L 9.109375 11.121094 L 9.109375 11.039062 L 9.144531 11.039062 C 9.195312 11.039062 9.234375 11.03125 9.253906 11.007812 C 9.273438 10.988281 9.28125 10.949219 9.28125 10.890625 L 9.28125 10.753906 C 9.28125 10.671875 9.296875 10.617188 9.332031 10.589844 C 9.363281 10.558594 9.425781 10.546875 9.519531 10.546875 L 9.554688 10.546875 L 9.554688 10.628906 L 9.515625 10.628906 C 9.464844 10.628906 9.429688 10.636719 9.414062 10.652344 C 9.398438 10.667969 9.390625 10.703125 9.390625 10.757812 L 9.390625 10.898438 C 9.390625 10.957031 9.378906 11 9.363281 11.027344 C 9.347656 11.054688 9.316406 11.070312 9.273438 11.082031 C 9.316406 11.089844 9.347656 11.109375 9.363281 11.136719 C 9.378906 11.164062 9.390625 11.207031 9.390625 11.265625 L 9.390625 11.40625 C 9.390625 11.460938 9.398438 11.496094 9.414062 11.511719 C 9.429688 11.527344 9.464844 11.535156 9.515625 11.535156 L 9.554688 11.535156 "/>
<path fill-rule="nonzero" fill="rgb(30.196078%, 30.196078%, 30.196078%)" fill-opacity="1" d="M 10.257812 10.835938 L 10.03125 11.136719 L 10.277344 11.46875 L 10.160156 11.46875 L 9.972656 11.214844 L 9.789062 11.46875 L 9.667969 11.46875 L 9.917969 11.136719 L 9.6875 10.835938 L 9.804688 10.835938 L 9.972656 11.0625 L 10.140625 10.835938 L 10.257812 10.835938 "/>
<path fill-rule="nonzero" fill="rgb(30.196078%, 30.196078%, 30.196078%)" fill-opacity="1" d="M 10.441406 11.535156 L 10.480469 11.535156 C 10.535156 11.535156 10.570312 11.527344 10.585938 11.511719 C 10.601562 11.492188 10.609375 11.457031 10.609375 11.40625 L 10.609375 11.265625 C 10.609375 11.207031 10.617188 11.164062 10.632812 11.136719 C 10.652344 11.109375 10.679688 11.089844 10.722656 11.082031 C 10.679688 11.070312 10.652344 11.054688 10.632812 11.027344 C 10.617188 11 10.609375 10.957031 10.609375 10.898438 L 10.609375 10.757812 C 10.609375 10.703125 10.601562 10.667969 10.585938 10.652344 C 10.570312 10.636719 10.535156 10.628906 10.480469 10.628906 L 10.441406 10.628906 L 10.441406 10.546875 L 10.476562 10.546875 C 10.570312 10.546875 10.632812 10.558594 10.664062 10.589844 C 10.699219 10.617188 10.714844 10.671875 10.714844 10.753906 L 10.714844 10.890625 C 10.714844 10.949219 10.722656 10.988281 10.742188 11.007812 C 10.761719 11.03125 10.800781 11.039062 10.855469 11.039062 L 10.890625 11.039062 L 10.890625 11.121094 L 10.855469 11.121094 C 10.800781 11.121094 10.761719 11.132812 10.742188 11.152344 C 10.722656 11.175781 10.714844 11.214844 10.714844 11.273438 L 10.714844 11.40625 C 10.714844 11.492188 10.699219 11.546875 10.664062 11.574219 C 10.632812 11.601562 10.570312 11.617188 10.476562 11.617188 L 10.441406 11.617188 L 10.441406 11.535156 "/>
<g mask="url(#mask-0)">
<use xlink:href="#source-3855"/>
</g>
<g mask="url(#mask-1)">
<use xlink:href="#source-3859"/>
</g>
</svg>
